svg/cni.svg

<?xml version="1.0" encoding="UTF-8"?>
<svg xmlns="http://www.w3.org/2000/svg" xmlns:xlink="http://www.w3.org/1999/xlink" width="29.714001" height="32" viewBox="0 0 29.714001 32">
<defs>
<linearGradient id="linear-pattern-0" gradientUnits="userSpaceOnUse" x1="334.519012" y1="-293.069" x2="334.519012" y2="-92.050003" gradientTransform="matrix(0.14991, 0, 0, -0.14991, -35.264999, -4.105)">
<stop offset="0" stop-color="rgb(81.960784%, 88.235294%, 84.313725%)" stop-opacity="1"/>
<stop offset="1" stop-color="rgb(0%, 69.019608%, 67.843137%)" stop-opacity="1"/>
</linearGradient>
<linearGradient id="linear-pattern-1" gradientUnits="userSpaceOnUse" x1="334.519012" y1="-293.069" x2="334.519012" y2="-92.050003" gradientTransform="matrix(0.14991, 0, 0, -0.14991, -35.264999, -4.105)">
<stop offset="0" stop-color="rgb(81.960784%, 88.235294%, 84.313725%)" stop-opacity="1"/>
<stop offset="1" stop-color="rgb(0%, 69.019608%, 67.843137%)" stop-opacity="1"/>
</linearGradient>
<linearGradient id="linear-pattern-2" gradientUnits="userSpaceOnUse" x1="15.362" y1="-49.217999" x2="15.362" y2="151.800995" gradientTransform="matrix(0.14991, 0, 0, -0.14991, -1.22, 32.450001)">
<stop offset="0" stop-color="rgb(81.960784%, 88.235294%, 84.313725%)" stop-opacity="1"/>
<stop offset="1" stop-color="rgb(0%, 69.019608%, 67.843137%)" stop-opacity="1"/>
</linearGradient>
</defs>
<path fill-rule="nonzero" fill="rgb(0%, 69.019608%, 67.843137%)" fill-opacity="1" d="M 23.273438 6.84375 L 23.15625 6.769531 L 14.789062 0.683594 L 0.773438 11.207031 L 3.441406 13.171875 L 14.941406 21.566406 L 28.972656 11.027344 Z M 4.597656 9.214844 L 12.152344 3.53125 L 14.25 5.0625 L 6.695312 10.757812 Z M 16.992188 15.179688 L 14.910156 16.738281 L 7.292969 11.175781 L 14.851562 5.511719 L 19.765625 9.109375 L 14.296875 13.214844 Z M 20.351562 9.527344 L 22.449219 11.058594 L 17.578125 14.746094 L 15.480469 13.214844 Z M 23.453125 11.222656 L 23.589844 11.101562 L 23.636719 11.074219 L 20.9375 9.109375 L 23.019531 7.550781 L 27.816406 11.042969 L 20.261719 16.722656 L 18.179688 15.195312 Z M 20.351562 8.660156 L 12.738281 3.097656 L 14.804688 1.539062 L 22.421875 7.101562 Z M 4.011719 9.648438 L 6.109375 11.175781 L 4.042969 12.738281 L 1.941406 11.191406 Z M 6.710938 11.628906 L 14.339844 17.203125 L 12.273438 18.746094 L 4.640625 13.171875 Z M 17.59375 15.613281 L 19.675781 17.144531 L 14.941406 20.695312 L 12.855469 19.167969 Z M 17.59375 15.613281 "/>
<path fill-rule="nonzero" fill="url(#linear-pattern-0)" d="M 14.878906 31.414062 C 14.800781 31.414062 14.722656 31.386719 14.65625 31.339844 L 0.847656 21.445312 C 0.59375 21.222656 0.546875 20.832031 0.773438 20.578125 L 0.847656 20.5 L 7.746094 15.554688 L 8.179688 16.5 L 1.941406 20.964844 L 14.863281 30.230469 L 27.789062 20.964844 L 21.566406 16.5 L 22 15.554688 L 28.898438 20.5 C 29.152344 20.726562 29.195312 21.117188 28.972656 21.371094 L 28.898438 21.445312 L 15.089844 31.339844 C 15.046875 31.386719 14.957031 31.414062 14.878906 31.414062 M 14.878906 31.414062 "/>
<path fill-rule="nonzero" fill="url(#linear-pattern-1)" d="M 14.878906 21.519531 C 14.800781 21.519531 14.722656 21.492188 14.65625 21.445312 L 0.847656 11.550781 C 0.59375 11.328125 0.546875 10.9375 0.773438 10.683594 L 0.847656 10.609375 L 14.65625 0.714844 C 14.78125 0.609375 14.964844 0.609375 15.089844 0.714844 L 28.898438 10.609375 C 29.152344 10.832031 29.195312 11.222656 28.972656 11.476562 L 28.898438 11.550781 L 15.089844 21.445312 C 15.046875 21.492188 14.957031 21.519531 14.878906 21.519531 M 1.972656 11.085938 L 14.894531 20.351562 L 27.816406 11.085938 L 14.894531 1.824219 Z M 1.972656 11.085938 "/>
<path fill-rule="nonzero" fill="url(#linear-pattern-2)" d="M 0.636719 11.085938 L 1.523438 11.085938 L 1.523438 20.980469 L 0.636719 20.980469 Z M 0.636719 11.085938 "/>
</svg>

<svg role="img" viewBox="0 0 29.714 32" xmlns="http://www.w3.org/2000/svg"><defs><linearGradient gradientTransform="matrix(.14991 0 0 -.14991 -35.265 -4.105)" gradientUnits="userSpaceOnUse" id="cni_svg__a" x1="334.519" x2="334.519" y1="-293.069" y2="-92.05"><stop offset="0" stop-color="rgb(81.960785%, 88.235295%, 84.313726%)"/><stop offset="1" stop-color="rgb(0%, 69.01961%, 67.843139%)"/></linearGradient><linearGradient gradientTransform="matrix(.14991 0 0 -.14991 -35.265 -4.105)" gradientUnits="userSpaceOnUse" id="cni_svg__b" x1="334.519" x2="334.519" y1="-293.069" y2="-92.05"><stop offset="0" stop-color="rgb(81.960785%, 88.235295%, 84.313726%)"/><stop offset="1" stop-color="rgb(0%, 69.01961%, 67.843139%)"/></linearGradient><linearGradient gradientTransform="matrix(.14991 0 0 -.14991 -1.22 32.45)" gradientUnits="userSpaceOnUse" id="cni_svg__c" x1="15.362" x2="15.362" y1="-49.218" y2="151.801"><stop offset="0" stop-color="rgb(81.960785%, 88.235295%, 84.313726%)"/><stop offset="1" stop-color="rgb(0%, 69.01961%, 67.843139%)"/></linearGradient></defs><path d="m23.273 6.844-.117-.074L14.79.684.773 11.207l2.668 1.965 11.5 8.394 14.032-10.539ZM4.598 9.214l7.554-5.683 2.098 1.531-7.555 5.696Zm12.394 5.966-2.082 1.558-7.617-5.562 7.559-5.664 4.914 3.597-5.47 4.106Zm3.36-5.653 2.097 1.532-4.87 3.687-2.099-1.531Zm3.101 1.696.137-.121.047-.028-2.7-1.965 2.083-1.558 4.796 3.492-7.554 5.68-2.082-1.528ZM20.352 8.66l-7.614-5.562 2.067-1.559 7.617 5.563Zm-16.34.988 2.097 1.528-2.066 1.562-2.102-1.547Zm2.699 1.98 7.629 5.575-2.067 1.543-7.632-5.574Zm10.883 3.985 2.082 1.532-4.735 3.55-2.086-1.527Zm0 0" fill="rgb(0%, 69.01961%, 67.843139%)"/><path d="M14.879 31.414a.4.4 0 0 1-.223-.074L.848 21.445c-.254-.222-.301-.613-.075-.867l.075-.078 6.898-4.945.434.945-6.239 4.465 12.922 9.265 12.926-9.265-6.223-4.465.434-.945 6.898 4.945c.254.227.297.617.075.871l-.075.074L15.09 31.34c-.043.047-.133.074-.211.074m0 0" fill="url(#cni_svg__a)"/><path d="M14.879 21.52a.4.4 0 0 1-.223-.075L.848 11.551c-.254-.223-.301-.614-.075-.867l.075-.075L14.656.715a.34.34 0 0 1 .434 0l13.808 9.894c.254.223.297.614.075.868l-.075.074-13.808 9.894c-.043.047-.133.075-.211.075M1.973 11.086l12.922 9.266 12.921-9.266-12.921-9.262Zm0 0" fill="url(#cni_svg__b)"/><path d="M.637 11.086h.886v9.894H.637Zm0 0" fill="url(#cni_svg__c)"/></svg>
